assets/svg/2728.svg

<svg xmlns="http://www.w3.org/2000/svg" viewBox="0 0 64 64" enable-background="new 0 0 64 64"><path fill="#f4ba37" d="m14.401 45.2l-3.768-8.722-3.767 8.722-6.891 4.77 6.891 4.771 3.767 8.721 3.768-8.721 6.891-4.771-6.891-4.77m-1.401 8.03l-2.368 5.475-2.367-5.475-4.325-2.995 4.325-2.998 2.367-5.475 2.368 5.475 4.325 2.998-4.325 2.995"/><path fill="#d94c9a" d="m48.824 19.779l-8.315-19.241-8.311 19.241-15.205 10.522 15.205 10.525 8.311 19.239 8.315-19.239 15.201-10.525-15.201-10.522m-3.091 17.716l-5.225 12.08-5.223-12.08-9.541-6.608 9.541-6.611 5.223-12.08 5.225 12.08 9.54 6.611-9.54 6.608"/><path fill="#29abe2" d="m13.495 10.8l-2.249-5.203-2.246 5.203-4.109 2.846 4.109 2.846 2.247 5.202 2.249-5.202 4.111-2.845-4.112-2.847m-.989 4.44l-1.259 2.916-1.26-2.916-2.303-1.594 2.303-1.596 1.259-2.914 1.259 2.914 2.305 1.596-2.304 1.594"/></svg>

<?xml version="1.0" encoding="utf-8"?>
<!-- Generator: Adobe Illustrator 16.0.0, SVG Export Plug-In . SVG Version: 6.00 Build 0)  -->
<!DOCTYPE svg PUBLIC "-//W3C//DTD SVG 1.1//EN" "http://www.w3.org/Graphics/SVG/1.1/DTD/svg11.dtd">
<svg version="1.1"
	 id="Layer_1" xmlns:dc="http://purl.org/dc/elements/1.1/" xmlns:cc="http://creativecommons.org/ns#" xmlns:rdf="http://www.w3.org/1999/02/22-rdf-syntax-ns#" xmlns:svg="http://www.w3.org/2000/svg" xmlns:sodipodi="http://sodipodi.sourceforge.net/DTD/sodipodi-0.dtd" xmlns:inkscape="http://www.inkscape.org/namespaces/inkscape" inkscape:export-ydpi="90" inkscape:export-xdpi="90" inkscape:export-filename="D:\TESTINGEMOJI\SVGTEST\2728.png" sodipodi:docname="2728.svg" inkscape:version="0.48.5 r10040"
	 xmlns="http://www.w3.org/2000/svg" xmlns:xlink="http://www.w3.org/1999/xlink" x="0px" y="0px" width="64px" height="64px"
	 viewBox="0 0 64 64" enable-background="new 0 0 64 64" xml:space="preserve">
<sodipodi:namedview  inkscape:cy="32" inkscape:cx="32" inkscape:zoom="3.6875" showgrid="false" guidetolerance="10" gridtolerance="10" objecttolerance="10" bordercolor="#666666" pagecolor="#ffffff" borderopacity="1" id="namedview3081" inkscape:window-y="191" inkscape:window-x="486" inkscape:window-height="480" inkscape:window-width="640" inkscape:pageshadow="2" inkscape:pageopacity="0" inkscape:current-layer="Layer_1" inkscape:window-maximized="0">
	</sodipodi:namedview>
<g>
	<path fill="#F4BA37" d="M14.401,45.202l-3.768-8.722l-3.767,8.722l-6.891,4.77l6.891,4.771l3.767,8.721l3.768-8.721l6.891-4.771
		L14.401,45.202z M13,53.232l-2.368,5.475l-2.367-5.475l-4.325-2.995l4.325-2.998l2.367-5.475L13,47.239l4.325,2.998L13,53.232z"/>
</g>
<g>
	<path fill="#D94C9A" d="M48.824,19.779L40.509,0.538l-8.311,19.241L16.993,30.301l15.205,10.525l8.311,19.239l8.315-19.239
		l15.201-10.525L48.824,19.779z M45.733,37.495l-5.225,12.077l-5.223-12.077l-9.541-6.608l9.541-6.611l5.223-12.082l5.225,12.082
		l9.54,6.611L45.733,37.495z"/>
</g>
<path fill="#29ABE2" d="M13.495,10.8l-2.249-5.203L9,10.8l-4.109,2.846L9,16.492l2.247,5.202l2.249-5.202l4.111-2.845L13.495,10.8z
	 M12.506,15.24l-1.259,2.916L9.987,15.24l-2.303-1.594l2.303-1.596l1.259-2.914l1.259,2.914l2.305,1.596L12.506,15.24z"/>
</svg>
